X:162
T:Queen of the Rushes, The    
B:CRE1.031 (Banrion na Luachra)
F:file ID: cre.1/162queen_r
S:John Potts
M:6/8
Q:160
R:jig
K:G
"D modal"
A/G/|F2D D3|G2E E3|F2D D3|GED DAG|
F2D D3|G2E E3|FAF GEA|D3 D2:|
z|c2A Bcd|ecA AGE|d2e f2d|ecA AGE|
c2A Bcd|ecA AGE|FAF GEA|D3 D2:|
F/G/| A3 dAF|A3 dAF|G3 EGE|GBG EFG|
A3 dAF|A3 dAG|FAF GEA|D3 D2:|

%%%

